pages/features/add-users.svg

<svg width="105" height="105" viewBox="0 0 105 105" xmlns="http://www.w3.org/2000/svg"><g transform="translate(0 0)" fill="none"><circle fill="#903EB9" cx="52.5" cy="52.5" r="52.5"/><path d="M64.978 71.258c.022-4.258-4.372-6.778-8.634-8.614-4.246-1.828-5.602-3.368-5.602-6.668 0-1.978 1.296-1.334 1.864-4.962.24-1.504 1.384-.024 1.604-3.458 0-1.368-.626-1.708-.626-1.708s.318-2.026.442-3.586c.128-1.634-.796-5.12-4.602-6.19-.664-.682-1.114-1.764.934-2.848-4.48-.208-5.522 2.136-7.908 3.86-2.03 1.512-2.578 3.906-2.48 5.18.13 1.56.446 3.586.446 3.586s-.628.34-.628 1.708c.22 3.436 1.368 1.954 1.606 3.458.568 3.628 1.866 2.984 1.866 4.962 0 3.3-.424 4.42-4.672 6.248-4.262 1.834-5.588 4.774-5.566 9.032.006 1.274-.022 1.742-.022 1.742h32s-.028-.468-.022-1.742zm2.022-18.258v-6h-4v6h-6v4h6v6h4v-6h6v-4h-6z" fill="#fff"/></g></svg>

<?xml version="1.0" encoding="UTF-8" standalone="no"?>
<svg width="105px" height="105px" viewBox="0 0 105 105" version="1.1" xmlns="http://www.w3.org/2000/svg" xmlns:xlink="http://www.w3.org/1999/xlink">
    <!-- Generator: Sketch 3.7.2 (28276) - http://www.bohemiancoding.com/sketch -->
    <title>Group 9</title>
    <desc>Created with Sketch.</desc>
    <defs></defs>
    <g id="Desktop-design" stroke="none" stroke-width="1" fill="none" fill-rule="evenodd">
        <g id="Features" transform="translate(-347.000000, -6801.000000)">
            <g id="Group-10" transform="translate(0.000000, 6464.000000)">
                <g id="Group-9" transform="translate(347.000000, 337.000000)">
                    <circle id="Oval-356" fill="#903EB9" cx="52.5" cy="52.5" r="52.5"></circle>
                    <path d="M64.978,71.2579994 C65,67 60.606,64.48 56.344,62.644 C52.098,60.816 50.742,59.276 50.742,55.975998 C50.742,53.997998 52.038,54.641998 52.606,51.014 C52.846,49.51 53.99,50.99 54.21,47.556 C54.21,46.188 53.584,45.848 53.584,45.848 C53.584,45.848 53.902,43.822 54.026,42.262 C54.154,40.628 53.23,37.142 49.424,36.072 C48.76,35.39 48.31,34.308 50.358,33.224 C45.878,33.016 44.836,35.36 42.45,37.084 C40.42,38.596 39.872,40.99 39.97,42.264 C40.1,43.824 40.416,45.85 40.416,45.85 C40.416,45.85 39.788,46.19 39.788,47.558 C40.008,50.994 41.156,49.512 41.394,51.016 C41.962,54.644 43.26,54 43.26,55.978 C43.26,59.278 42.836,60.398 38.588,62.226 C34.326,64.06 33,67 33.022,71.2579994 C33.028,72.5320014 33,73 33,73 L65,73 C65,73 64.972,72.5320014 64.978,71.2579994 L64.978,71.2579994 Z M67,53 L67,47 L63,47 L63,53 L57,53 L57,57 L63,57 L63,63 L67,63 L67,57 L73,57 L73,53 L67,53 L67,53 Z" id="Page-1" fill="#FFFFFF"></path>
                </g>
            </g>
        </g>
    </g>
</svg>
